X: 28821
T: My Precious
R: jig
M: 6/8
K: Dmajor
~F3 AFE|DED DFA|B2d ecA|~F3 EDE|
~F3 AFE|DED DFA|BdB BAF|1 ~E3 D2E:|2 ~E3 D3||
def efa|baf edB|ABA AFA|def ~g3|
def efa|baf edB|ABA AFD|1 ~E3 D3:|2 ~E3 D2E||

